X: 33052
T: Pride Of The Bronx, The
R: reel
M: 4/4
K: Dmajor
AF F2 AFdF|AF F2 ABFG|AF F2 ABde|fdgf efdB|
AF F2 AFdF|AF F2 ABFG|AF F2 ABde|fdgf e2 de|
fa a2 fb b2|faaf afde|fa a2 fb b2|afgf e2 de|
fa a2 fb b2|faaf afde|dBAF ABde|f3 e fedB|

